X:1
T:Title
L:1/8
Q:1/4=120
M:6/8
K:A
V:1 treble nm="Church Organ, Staff"
V:1
 c2 d c2 A | E2 F E3 | c2 =c ^c2 e | e3 .B3 | d2 c d2 B | F2 G F3 | G2 A B2 B | c3 e2 e | %8
w: By~James~C.~Macy * * *||||||||
 d2 d ded | d2 c c3 | B2 B BcB | B2 A .A3 | A2 A c2 c | e2 F d2 d | c2 A c2 B | B3 .A3 | %16
w: ||||||||
 z2 E F2 G | c3 .c3 | e3 e3 | A3 .A3 |] %20
w: ||||

